X: 1
T: Roger de Coverley. WCl.23
M: 9/8
L: 1/8
%Q: 140
O: William Clarke MS, Lincoln 1770
S: William Clarke MS, Lincoln 1770
R: slipjig
A: England
N: .Nice version though...
Z: vmp.Barry Callaghan
K: D
"Usually only one sharp"\
EFG gfe  dBG  | F2A  AEA   F2E/D/ | EFG gfe  dBd  | g2G  GEA F2E/D/ ||
dBd ece  dBG  | F2A  AEA   F2E/D/ | dBd ece  dBG  | g2G  GEA F2E/D/ ||
gab bab  bag  | fga  a>ba/g/ f>ed | gab bab  agf  | g2G  GEA F2E/D/ ||
dBd gec  dBG  | F2A  AEA   F2E/D/ | dBd gec  dBG  | g2G  GEA F2E/D/ ||
EFG G,2D B,2D | G,2A AEA   F2E/D/ | EFG G,2D B,2D | G,2G GEA F2E/D/ ||
ECE DB,D DB,G,| A,2A AEc   F2E/D/ | ECE DB,D DB,G,| G,2G GEA F2E/D/ |]
